X:1
T:The Candlelight Fisherman
M:2/4
L:1/16
K:D
 A,2| D2 DD EE C2| D6 FG| A2d2 c2B2| A6 Bc| d2 dd c2B2| A2 dd D2 DE|\
 F2 FF G2E2| D6||
